icons/social.svg

<svg width="24" height="24" viewBox="0 0 24 24" fill="none" xmlns="http://www.w3.org/2000/svg">
<path fill-rule="evenodd" clip-rule="evenodd" d="M12 4C11.4477 4 11 4.44772 11 5C11 5.55228 11.4477 6 12 6C12.5523 6 13 5.55228 13 5C13 4.44772 12.5523 4 12 4ZM9 5C9 3.34315 10.3431 2 12 2C13.6569 2 15 3.34315 15 5C15 6.30622 14.1652 7.41746 13 7.82929V10.126C14.7252 10.5701 16 12.1362 16 14C16 14.5061 15.9056 14.9912 15.7335 15.4379L17.2796 16.5422C17.7663 16.201 18.3597 16 19 16C20.6569 16 22 17.3431 22 19C22 20.6569 20.6569 22 19 22C17.3431 22 16 20.6569 16 19C16 18.7123 16.0407 18.4335 16.1167 18.1694L14.5703 17.0648C13.8757 17.6478 12.979 18 12 18C11.021 18 10.1243 17.6478 9.42969 17.0648L7.88328 18.1694C7.95927 18.4335 8 18.7123 8 19C8 20.6569 6.65685 22 5 22C3.34315 22 2 20.6569 2 19C2 17.3431 3.34315 16 5 16C5.64033 16 6.2337 16.201 6.72042 16.5422L8.26651 15.4379C8.0944 14.9912 8 14.5061 8 14C8 12.1362 9.27477 10.5701 11 10.126V7.82929C9.83481 7.41746 9 6.30622 9 5ZM12 12C10.8954 12 10 12.8954 10 14C10 14.4349 10.1376 14.8346 10.3719 15.1619C10.7364 15.6713 11.3298 16 12 16C12.6702 16 13.2636 15.6713 13.6281 15.1619C13.8624 14.8346 14 14.4349 14 14C14 12.8954 13.1046 12 12 12ZM5 18C4.44772 18 4 18.4477 4 19C4 19.5523 4.44772 20 5 20C5.55228 20 6 19.5523 6 19C6 18.7819 5.93136 18.5829 5.81435 18.4194C5.63124 18.1635 5.33471 18 5 18ZM19 18C18.6653 18 18.3688 18.1635 18.1856 18.4194C18.0686 18.5829 18 18.7819 18 19C18 19.5523 18.4477 20 19 20C19.5523 20 20 19.5523 20 19C20 18.4477 19.5523 18 19 18Z" fill="black"/>
</svg>

<svg
  width="24"
  height="24"
  viewBox="0 0 24 24"
  xmlns="http://www.w3.org/2000/svg"
>
  <path
    fill-rule="evenodd"
    clip-rule="evenodd"
    d="M12 4a1 1 0 1 0 0 2 1 1 0 0 0 0-2zM9 5a3 3 0 1 1 4 2.83v2.296a4.002 4.002 0 0 1 2.733 5.312l1.547 1.104a3 3 0 1 1-1.163 1.627l-1.547-1.104A3.985 3.985 0 0 1 12 18a3.985 3.985 0 0 1-2.57-.935l-1.547 1.104a3 3 0 1 1-1.163-1.627l1.547-1.104A4.002 4.002 0 0 1 11 10.126V7.829A3.001 3.001 0 0 1 9 5zm3 7a2 2 0 1 0 0 4 2 2 0 0 0 0-4zm-7 6a1 1 0 1 0 0 2 1 1 0 0 0 0-2zm14 0a.998.998 0 0 0-1 1 1 1 0 1 0 1-1z"
  />
</svg>
